svgs/shouldianswer.svg

<svg xmlns="http://www.w3.org/2000/svg" viewBox="0 0 192 192"><path d="M89.762 116.478C79.224 106.091 70.584 93.673 64.29 79.867c6.193-6.833 11.982-13.366 14.338-15.644a13.806 13.806 0 0 0 2.732-6.119 14.346 14.346 0 0 0-.414-6.774 284.188 284.188 0 0 1-4.435-27.119c-.218-2.266-1.265-4.349-2.908-5.786-1.644-1.437-3.753-2.114-5.859-1.879q-.211.023-.42.058H33.296c-1.404.136-2.72.802-3.714 1.879-.993 1.076-1.603 2.497-1.72 4.009-.556 16.512 1.96 32.979 7.399 48.431m65.174 84.972c7.988 4.557 39.741 21.747 69.417 19.383 1.419-.107 2.757-.753 3.774-1.824 1.017-1.071 1.647-2.497 1.777-4.021v-36.574c.329-2.251-.187-4.553-1.434-6.395-1.247-1.843-3.124-3.078-5.217-3.432a7.493 7.493 0 0 0-.418-.058 232.038 232.038 0 0 1-25.163-4.772 11.583 11.583 0 0 0-6.295-.446c-2.099.437-4.058 1.449-5.687 2.939-2.117 2.322-8.227 8.81-14.578 15.515q-3.216-1.701-6.313-3.607M39.892 83.58c2.801 6.93 5.281 11.967 6.385 14.123v.258l.479.989c7.106 13.262 16.03 25.296 26.471 35.695" fill="none" stroke="#000" stroke-width="12" stroke-linecap="round" stroke-linejoin="round"/><path d="M47.576 100.455c-6.13 1.536-10.645 1.664-12.412-.974-6.945-10.366 14.563-20.009 9.858-29.653-3.092-6.339-37.191 14.224-26.437 36.163 8.71 17.77 27.228 20.593 44.926 17.975" fill="none" stroke="#000" stroke-width="12" stroke-linecap="round" stroke-linejoin="round"/><path d="M89.763 116.477c-8.447 12.898-37.125 31.378-37.573 59.023h51.53c-19.044-18.884 28.229-62.038 14.563-79.516-8.578-10.97-28.3-10.364-47.335-3.468" fill="none" stroke="#000" stroke-width="12" stroke-linecap="round" stroke-linejoin="round"/></svg>

<svg
    xmlns="http://www.w3.org/2000/svg"
    viewBox="0 0 192 192"
    id="vector">
    <path
        id="path"
        d="M 89.762 116.478 C 79.224 106.091 70.584 93.673 64.29 79.867 C 70.483 73.034 76.272 66.501 78.628 64.223 C 80.013 62.471 80.954 60.363 81.36 58.104 C 81.766 55.846 81.623 53.512 80.946 51.33 C 79.033 42.379 77.553 33.327 76.511 24.211 C 76.293 21.945 75.246 19.862 73.603 18.425 C 71.959 16.988 69.85 16.311 67.744 16.546 Q 67.533 16.569 67.324 16.604 L 33.296 16.604 C 31.892 16.74 30.576 17.406 29.582 18.483 C 28.589 19.559 27.979 20.98 27.862 22.492 C 27.306 39.004 29.822 55.471 35.261 70.923 M 100.435 155.895 C 108.423 160.452 140.176 177.642 169.852 175.278 C 171.271 175.171 172.609 174.525 173.626 173.454 C 174.643 172.383 175.273 170.957 175.403 169.433 L 175.403 132.859 C 175.732 130.608 175.216 128.306 173.969 126.464 C 172.722 124.621 170.845 123.386 168.752 123.032 C 168.613 123.009 168.473 122.989 168.334 122.974 C 159.876 121.85 151.477 120.257 143.171 118.202 C 141.144 117.473 138.975 117.319 136.876 117.756 C 134.777 118.193 132.818 119.205 131.189 120.695 C 129.072 123.017 122.962 129.505 116.611 136.21 Q 113.395 134.509 110.298 132.603 M 39.892 83.58 C 42.693 90.51 45.173 95.547 46.277 97.703 L 46.277 97.961 L 46.756 98.95 C 53.862 112.212 62.786 124.246 73.227 134.645"
        fill="none"
        stroke="#000000"
        stroke-width="12"
        stroke-linecap="round"
        stroke-linejoin="round"/>
    <path
        id="path_1"
        d="M 47.576 100.455 C 41.446 101.991 36.931 102.119 35.164 99.481 C 28.219 89.115 49.727 79.472 45.022 69.828 C 41.93 63.489 7.831 84.052 18.585 105.991 C 27.295 123.761 45.813 126.584 63.511 123.966"
        fill="none"
        stroke="#000000"
        stroke-width="12"
        stroke-linecap="round"
        stroke-linejoin="round"/>
    <path
        id="path_2"
        d="M 89.763 116.477 C 81.316 129.375 52.638 147.855 52.19 175.5 L 103.72 175.5 C 84.676 156.616 131.949 113.462 118.283 95.984 C 109.705 85.014 89.983 85.62 70.948 92.516"
        fill="none"
        stroke="#000000"
        stroke-width="12"
        stroke-linecap="round"
        stroke-linejoin="round"/>
</svg>
